X: 1
T: Chorus, The
M: 6/8
L: 1/8
R: jig
K: Dmaj
F2D DED|AFD ABd|F2D DED|~A3 BAG| 
F2D DED|AFD DE=F|E2=C CEF|GFG GBA:|
F2d dcd|ABG FED|F2d dcd|~A3 BAG|
F2d dcd|ABG FED|E2=c cBc|GFG GBA|
F2d dcd|ABG FED|F2d dcd|ABA ABc|
dBd =cAc|BGB AFD|E2=c cBc|GFG Gag||
|:f2d ded|afd dea|f2d ded|~a3 bag|
f2d ded|afd de=f|e2=c cef|gfg gba:|
|:fdf ece|dBd AFD|F2d dcd|ABA ABc|
dBd =cAc|BGB AFD|E2=c cBc|1 GFG Gag:|2 GFG GBA||
